dist/svg/u1F4ED.svg

<?xml version="1.0" encoding="UTF-8"?><svg id="a" xmlns="http://www.w3.org/2000/svg" xmlns:xlink="http://www.w3.org/1999/xlink" viewBox="0 0 40 40"><defs><style>.c{fill:none;}.d{fill:#e5e9ee;}.e{fill:#d0d5da;}.f{fill:#afb7c0;}.g{fill:#1e6ef4;}.h{fill:#082b9c;}.i{fill:#0a37c7;}.j{clip-path:url(#b);}</style><clipPath id="b"><path d="M10.454,11.176c3.946,.255,6.931,3.709,6.931,7.663v13.4H3.948c-.78,0-1.413-.633-1.413-1.413v-12.242c0-4.264,3.595-7.689,7.919-7.409Z" fill="none"/></clipPath></defs><g><path d="M26.881,9.69H9.96c-4.672,0-8.46,3.788-8.46,8.46v13.389c0,1.198,.971,2.17,2.17,2.17h29.502c1.198,0,2.17-.971,2.17-2.17v-13.389c0-4.673-3.788-8.46-8.46-8.46Z" fill="#1e6ef4"/><path d="M10.454,11.176c3.946,.255,6.931,3.709,6.931,7.663v13.4H3.948c-.78,0-1.413-.633-1.413-1.413v-12.242c0-4.264,3.595-7.689,7.919-7.409Z" fill="#082b9c"/><path d="M37.229,23.642c.411,.539,1.271,.248,1.271-.429v-4.956c0-.368-.298-.665-.665-.665h-14.391c-.649,0-1.175,.526-1.175,1.175h0c0,.649,.526,1.175,1.175,1.175h10.965l2.821,3.7Z" fill="#0a37c7"/><path d="M16.198,33.709h5.338v2.759c0,.395-.321,.716-.716,.716h-3.906c-.395,0-.716-.321-.716-.716v-2.759h0Z" fill="#0a37c7"/><g clip-path="#b"><g><g><path d="M8.041,21.127v8.587c0,.597,.216,1.139,.563,1.572l6.574-5.241-7.137-4.918Z" fill="#d0d5da"/><path d="M26.73,21.127l-7.137,4.918,6.574,5.241c.347-.432,.563-.974,.563-1.572v-8.587Z" fill="#d0d5da"/><path d="M19.105,26.381c-1.035,.713-2.404,.713-3.439,0l-.488-.336-6.574,5.241c.463,.577,1.165,.954,1.962,.954h13.638c.797,0,1.5-.377,1.962-.954l-6.574-5.241-.488,.336Z" fill="#e5e9ee"/></g><path d="M26.73,21.127l-7.625,6.354c-1.035,.803-2.404,.803-3.439,0l-7.625-6.354H26.73Z" fill="#afb7c0"/><path d="M24.204,17.592H10.567c-1.395,0-2.525,1.131-2.525,2.525v1.01l7.625,5.254c1.035,.713,2.404,.713,3.439,0l7.625-5.254v-1.01c0-1.395-1.131-2.525-2.525-2.525Z" fill="#e5e9ee"/></g></g></g><rect width="40" height="40" fill="none"/></svg>

<svg id="Layer_1" data-name="Layer 1" xmlns="http://www.w3.org/2000/svg" xmlns:xlink="http://www.w3.org/1999/xlink" viewBox="0 0 40 40"><defs><style>.cls-1{fill:none;}.cls-2{fill:#1e6ef4;}.cls-3{fill:#082b9c;}.cls-4{fill:#0a37c7;}.cls-5{clip-path:url(#clip-path);}.cls-6{fill:#d0d5da;}.cls-7{fill:#e5e9ee;}.cls-8{fill:#afb7c0;}</style><clipPath id="clip-path"><path class="cls-1" d="M10.454,11.176a7.593,7.593,0,0,1,6.931,7.663v13.4H3.948a1.413,1.413,0,0,1-1.413-1.413V18.585A7.426,7.426,0,0,1,10.454,11.176Z"/></clipPath></defs><path class="cls-2" d="M26.881,9.69H9.96A8.461,8.461,0,0,0,1.5,18.151V31.539a2.169,2.169,0,0,0,2.17,2.17h29.5a2.169,2.169,0,0,0,2.169-2.17V18.151A8.461,8.461,0,0,0,26.881,9.69Z"/><path class="cls-3" d="M10.454,11.176a7.593,7.593,0,0,1,6.931,7.663v13.4H3.948a1.413,1.413,0,0,1-1.413-1.413V18.585A7.426,7.426,0,0,1,10.454,11.176Z"/><path class="cls-4" d="M37.229,23.642a.708.708,0,0,0,1.271-.429V18.257a.665.665,0,0,0-.665-.665H23.443a1.175,1.175,0,0,0-1.175,1.175h0a1.175,1.175,0,0,0,1.175,1.175H34.408Z"/><path class="cls-4" d="M16.2,33.709h5.338a0,0,0,0,1,0,0v2.759a.716.716,0,0,1-.716.716H16.914a.716.716,0,0,1-.716-.716V33.709A0,0,0,0,1,16.2,33.709Z"/><g class="cls-5"><path class="cls-6" d="M8.041,21.127v8.587A2.5,2.5,0,0,0,8.6,31.286l6.574-5.241Z"/><path class="cls-6" d="M26.73,21.127l-7.138,4.918,6.575,5.241a2.5,2.5,0,0,0,.563-1.572Z"/><path class="cls-7" d="M19.105,26.381a3.028,3.028,0,0,1-3.439,0l-.488-.336L8.6,31.286a2.51,2.51,0,0,0,1.963.954H24.2a2.512,2.512,0,0,0,1.963-.954l-6.575-5.241Z"/><path class="cls-8" d="M26.73,21.127l-7.625,6.355a2.759,2.759,0,0,1-3.439,0L8.041,21.127Z"/><path class="cls-7" d="M24.2,17.592H10.567a2.525,2.525,0,0,0-2.526,2.525v1.01l7.625,5.254a3.028,3.028,0,0,0,3.439,0l7.625-5.254v-1.01A2.525,2.525,0,0,0,24.2,17.592Z"/></g><rect class="cls-1" width="40" height="40"/></svg>
